packages/opendesign/src/icons/svgs/fill/x2.svg

<?xml version="1.0" encoding="UTF-8"?>
<svg width="24px" height="24px" viewBox="0 0 24 24" version="1.1" xmlns="http://www.w3.org/2000/svg" xmlns:xlink="http://www.w3.org/1999/xlink">
    <title>x2</title>
    <g id="x2" stroke="none" stroke-width="1" fill="none" fill-rule="evenodd">
        <path d="M12,1.25 C13.1163031,1.25 14.2105272,1.42042814 15.2543424,1.75161109 C15.6491598,1.87687923 15.8676727,2.29849185 15.7424045,2.69330924 C15.6171364,3.08812662 15.1955238,3.30663946 14.8007064,3.18137133 C13.9031753,2.8966016 12.9619282,2.75 12,2.75 C6.89136606,2.75 2.75,6.89136606 2.75,12 C2.75,17.1086339 6.89136606,21.25 12,21.25 C17.1086339,21.25 21.25,17.1086339 21.25,12 C21.25,9.03813596 19.8492533,6.31083383 17.517696,4.57511005 C17.1854419,4.32776402 17.1166102,3.85790524 17.3639563,3.5256511 C17.6113023,3.19339695 18.0811611,3.12456531 18.4134152,3.37191134 C21.1212383,5.38774555 22.75,8.55900076 22.75,12 C22.75,17.9370611 17.9370611,22.75 12,22.75 C6.06293894,22.75 1.25,17.9370611 1.25,12 C1.25,6.06293894 6.06293894,1.25 12,1.25 Z M15.8137087,7.16302719 C16.1060109,6.96053311 16.5101475,6.98946084 16.770497,7.24981036 C17.0633902,7.54270358 17.0633902,8.01757732 16.770497,8.31047054 L16.770497,8.31047054 L13.058,12.022 L16.770497,15.7350917 C17.0633902,16.027985 17.0633902,16.5028587 16.770497,16.7957519 C16.5101475,17.0561014 16.1060109,17.0850292 15.8137087,16.8825351 L15.7098368,16.7957519 L11.997,13.083 L8.28521562,16.7957519 L8.18134379,16.8825351 C7.88904157,17.0850292 7.48490497,17.0561014 7.22455544,16.7957519 C6.93166223,16.5028587 6.93166223,16.027985 7.22455544,15.7350917 L7.22455544,15.7350917 L10.936,12.022 L7.22455544,8.31047054 C6.93166223,8.01757732 6.93166223,7.54270358 7.22455544,7.24981036 C7.48490497,6.98946084 7.88904157,6.96053311 8.18134379,7.16302719 L8.28521562,7.24981036 L11.997,10.961 L15.7098368,7.24981036 Z" id="path1" fill="#000000" fill-rule="nonzero"></path>
    </g>
</svg>

<!-- Generated by IcoMoon.io -->
<svg version="1.1" xmlns="http://www.w3.org/2000/svg" width="24" height="24" viewBox="0 0 24 24">
<title>x2</title>
<path d="M12 1.25c1.116 0 2.211 0.17 3.254 0.502 0.395 0.125 0.613 0.547 0.488 0.942s-0.547 0.613-0.942 0.488c-0.898-0.285-1.839-0.431-2.801-0.431-5.109 0-9.25 4.141-9.25 9.25s4.141 9.25 9.25 9.25c5.109 0 9.25-4.141 9.25-9.25 0-2.962-1.401-5.689-3.732-7.425-0.332-0.247-0.401-0.717-0.154-1.049s0.717-0.401 1.049-0.154c2.708 2.016 4.337 5.187 4.337 8.628 0 5.937-4.813 10.75-10.75 10.75s-10.75-4.813-10.75-10.75c0-5.937 4.813-10.75 10.75-10.75zM15.814 7.163c0.292-0.202 0.696-0.174 0.957 0.087 0.293 0.293 0.293 0.768 0 1.061v0l-3.712 3.712 3.712 3.713c0.293 0.293 0.293 0.768 0 1.061-0.26 0.26-0.664 0.289-0.957 0.087l-0.104-0.087-3.713-3.713-3.712 3.713-0.104 0.087c-0.292 0.203-0.696 0.174-0.957-0.087-0.293-0.293-0.293-0.768 0-1.061v0l3.711-3.713-3.711-3.712c-0.293-0.293-0.293-0.768 0-1.061 0.26-0.26 0.664-0.289 0.957-0.087l0.104 0.087 3.712 3.711 3.713-3.711z"></path>
</svg>
